X: 42
T: Sunshine
R: schottisch
C: Grégory Jolivet
M: 4/4
L: 1/8
K: Dmaj
|:"D"A2dc d3A-|"A/D"ABAG "D"F2D2|"Em7"E2dc d3G-|"G/A"GAGF E2FG|"D"A2dc d3A-|
"A/D"ABAG F2D2|1 "Em7"E2dc d3G-|"G/A"GAGF "A"E2FG:|2 "Em7"E2dc de2c-|"A"c6 de||
|:"D"f2ed "D/F#"A3B-|"G"BAGF "D/F#"EDEF|"Em"GBAG "D/F#"A2FA|"G"GFEG "G/A"F2D2|
"D"f2ed "D/F#"A3B-|"G"BAGF "D/F#"EDEF|"Em"GBAG "D/F#"A2FA|"G"GF "A"EF "D"D4:| 

